htdocs/f/img/i-factory.svg

<svg width="24" height="24" viewBox="0 0 24 24" fill="none" xmlns="http://www.w3.org/2000/svg">
<path fill-rule="evenodd" clip-rule="evenodd" d="M21.0799 0C21.6 0 22.0332 0.398662 22.0764 0.916955L22.1667 2H16.8333L16.9236 0.916953C16.9668 0.398661 17.4 0 17.9201 0H21.0799ZM16.6667 4L16.0835 10.9976C16.027 11.676 15.3239 12.1009 14.6971 11.8355L9.38988 9.58846C8.73052 9.30929 8 9.79329 8 10.5093V10.8778C8 11.5938 7.26948 12.0778 6.61012 11.7986L1.38988 9.58846C0.730515 9.30929 0 9.79329 0 10.5093V23C0 23.5523 0.447715 24 1 24H8H15H16H22.9132C23.4982 24 23.9583 23.5 23.9097 22.917L22.3333 4H16.6667ZM4 16C3.44772 16 3 16.4477 3 17V19C3 19.5523 3.44772 20 4 20H8C8.55228 20 9 19.5523 9 19V17C9 16.4477 8.55228 16 8 16H4ZM12 16C11.4477 16 11 16.4477 11 17V19C11 19.5523 11.4477 20 12 20H16C16.5523 20 17 19.5523 17 19V17C17 16.4477 16.5523 16 16 16H12Z" fill="#E33916"/>
</svg>

<svg width="24" height="24" viewBox="0 0 24 24" fill="none" xmlns="http://www.w3.org/2000/svg"><path fill-rule="evenodd" clip-rule="evenodd" d="M21.08 0a1 1 0 01.996.917L22.166 2h-5.333l.09-1.083A1 1 0 0117.92 0h3.16zm-4.413 4l-.584 6.998a1 1 0 01-1.386.838L9.39 9.587A1 1 0 008 10.51v.369a1 1 0 01-1.39.92l-5.22-2.21A1 1 0 000 10.51V23a1 1 0 001 1h21.913a1 1 0 00.997-1.083L22.333 4h-5.666zM4 16a1 1 0 00-1 1v2a1 1 0 001 1h4a1 1 0 001-1v-2a1 1 0 00-1-1H4zm8 0a1 1 0 00-1 1v2a1 1 0 001 1h4a1 1 0 001-1v-2a1 1 0 00-1-1h-4z" fill="#E33916"/></svg>
